ametion_vv-test/img/icons/social/facebook.svg

<svg width="56" height="56" viewBox="0 0 56 56" fill="none" xmlns="http://www.w3.org/2000/svg">
<g clip-path="url(#clip0_1_217)">
<rect x="0.000610352" width="55.9994" height="55.9994" fill="#F9F9F9"/>
<path d="M32.5573 27.9766H29.2946V39.9996H24.3514V27.9766H22.0004V23.7512H24.3514V21.017C24.3514 19.0617 25.2748 15.9998 29.3386 15.9998L33.0002 16.0153V20.1167H30.3435C29.9077 20.1167 29.2949 20.3357 29.2949 21.2684V23.7552H32.9892L32.5573 27.9766Z" fill="#36BA5F"/>
</g>
<defs>
<clipPath id="clip0_1_217">
<path d="M0.000610352 10C0.000610352 4.47715 4.47776 0 10.0006 0H46C51.5228 0 56 4.47715 56 10V45.9994C56 51.5222 51.5228 55.9994 46 55.9994H10.0006C4.47776 55.9994 0.000610352 51.5222 0.000610352 45.9994V10Z" fill="white"/>
</clipPath>
</defs>
</svg>

<svg width="56" height="56" fill="none" xmlns="http://www.w3.org/2000/svg"><g clip-path="url(#clip0_1_217)"><path fill="#F9F9F9" d="M.001 0H56v55.999H.001z"/><path d="M32.557 27.977h-3.262V40H24.35V27.977H22V23.75h2.35v-2.734c0-1.955.924-5.017 4.988-5.017l3.661.015v4.102h-2.657c-.435 0-1.048.219-1.048 1.151v2.487h3.694l-.432 4.222z" fill="#36BA5F"/></g><defs><clipPath id="clip0_1_217"><path d="M0 10C0 4.477 4.479 0 10 0h36c5.523 0 10 4.477 10 10v36c0 5.522-4.477 10-10 10H10C4.479 56 0 51.521 0 46V10z" fill="#fff"/></clipPath></defs></svg>
